!!!ONB: MCCC : IJB0067_03 : Extracted Monophonic Melody
!!!COM: Bach, Johann Sebastian
!!!OPR: Cello Suite No.5
!!!OMV: 3
!!!SCT: BWV 1011
!!!ODT: 1717///
**kern
*thru
*staff1
*IP1
*clefF4
*k[b-e-a-]
*c:
*M3/2
*>A
8C
=1
4.C
8D
8E-
8F
8G
8A-
8G
8F
8G
8E-
=2
4.F
8E-
8E-
8D
8C
8BB
4.C
8D
=3
4.GG
16C
16BB
4C
4D
8F
8E-
8D
8C
=4
4.B-
8F
4c#
4d
4.D
8G
=5
4.E-
8D
8C
8D
8E-
8F
8A
8B-
8d
8c
=6
4.c
8B-
8A
8F
8E-
8D
8D
8E-
8.AA
16F
=7
8E-
8D
8C
8BB-
4.c
8d
8c
8B
8c
8A
=8
4.d
8c
8c
8B
8A
8F#
4.G
8B
=9
8A
8F#
8E
8D
4e
8d
8c#
4d
4e
=10
4.f
8e
8d
8c
8B
8c
4.F#
8G
=11
8AA
8F#
8d
8e
4c
8.C
16B
4.B
8A
=12
[4A
16A]
16F
16E-
16D
8.E-
16C
2G
*>A
8r
8C
=1
4.C
8D
8E-
8F
8G
8A-
8G
8F
8G
8E-
=2
4.F
8E-
8E-
8D
8C
8BB
4.C
8D
=3
4.GG
16C
16BB
4C
4D
8F
8E-
8D
8C
=4
4.B-
8F
4c#
4d
4.D
8G
=5
4.E-
8D
8C
8D
8E-
8F
8A
8B-
8d
8c
=6
4.c
8B-
8A
8F
8E-
8D
8D
8E-
8.AA
16F
=7
8E-
8D
8C
8BB-
4.c
8d
8c
8B
8c
8A
=8
4.d
8c
8c
8B
8A
8F#
4.G
8B
=9
8A
8F#
8E
8D
4e
8d
8c#
4d
4e
=10
4.f
8e
8d
8c
8B
8c
4.F#
8G
=11
8AA
8F#
8d
8e
4c
8.C
16B
4.B
8A
=12
[4A
16A]
16F
16E-
16D
8.E-
16C
2G
8r
*>B
8e
=13
4.e
8f
8e
8d
8c#
16d
16e
4.A
8B-
=14
4.F
8E-
8D
8E-
8F
8A-
4G
4F
=15
8F
8E-
8D
8C
4B-
4A
4.d
8e-
=16
4.E
8F
8A
8B-
8c
8d
4e-
4d
=17
8c
8B-
8A
8F
8E-
8D-
8E-
8C
8D-
8F
8G
8A-
=18
8A-
8G
8F
8E-
4.f
8g
4.c
8B-
=19
4.B-
8A
8B-
8c
8d
8e
4.e
16d
16e
=20
4.f
8c
4d
4A
8A
8B-
8D
8c
=21
8B-
8A
8F
8E-
8A
8B
8A
8B
4.B
16A
16B
=22
4.c
8B
8d
8c#
4d
8c
8B-
8A
8F
=23
[4F
8F]
8G
4E-
8FF
8D
4.D
8C
=24
4.C
16GG
16FF
16EE-
16FF
8GG
2d
*>B
8r
8e
=13
4.e
8f
8e
8d
8c#
16d
16e
4.A
8B-
=14
4.F
8E-
8D
8E-
8F
8A-
4G
4F
=15
8F
8E-
8D
8C
4B-
4A
4.d
8e-
=16
4.E
8F
8A
8B-
8c
8d
4e-
4d
=17
8c
8B-
8A
8F
8E-
8D-
8E-
8C
8D-
8F
8G
8A-
=18
8A-
8G
8F
8E-
4.f
8g
4.c
8B-
=19
4.B-
8A
8B-
8c
8d
8e
4.e
16d
16e
=20
4.f
8c
4d
4A
8A
8B-
8D
8c
=21
8B-
8A
8F
8E-
8A
8B
8A
8B
4.B
16A
16B
=22
4.c
8B
8d
8c#
4d
8c
8B-
8A
8F
=23
[4F
8F]
8G
4E-
8FF
8D
4.D
8C
=24
4.C
16GG
16FF
16EE-
16FF
8GG
2d
==
*-
